X:630
T: "Kuhreigen"
N: Z1311
O: Europa, Miteleuropa, Oberhaslithal
R: Handwerker -, Bauern - Lied
M: 6/8
L: 1/32
K: G
G2A2 | B8B2G2c8c2A2 | d6c2B2c2A8z4
A4D4D4B4G4G4 | d8c4A8
GABc | d4d4B4d4c2B2c2A2 | d6c2B2A2G8z4
A4A4D4B4B4G4 | A8D4D8
GABc | d4d2g2B4d4c2B2A2f2 | d2B2c2A2G8z4

